icons/square-chevron-down-outline.svg

<svg xmlns="http://www.w3.org/2000/svg" width="24" height="24" viewBox="0 0 24 24">
  <path d="M19,2 C20.6568542,2 22,3.34314575 22,5 L22,5 L22,19 C22,20.6568542 20.6568542,22 19,22 L19,22 L5,22 C3.34314575,22 2,20.6568542 2,19 L2,19 L2,5 C2,3.34314575 3.34314575,2 5,2 L5,2 Z M19,4 L5,4 C4.44771525,4 4,4.44771525 4,5 L4,5 L4,19 C4,19.5522847 4.44771525,20 5,20 L5,20 L19,20 C19.5522847,20 20,19.5522847 20,19 L20,19 L20,5 C20,4.44771525 19.5522847,4 19,4 L19,4 Z M7.38710056,9.20970461 C7.77939176,8.90467972 8.34662282,8.93240926 8.70710678,9.29289322 L8.70710678,9.29289322 L12,12.585 L15.2928932,9.29289322 L15.3871006,9.20970461 C15.7793918,8.90467972 16.3466228,8.93240926 16.7071068,9.29289322 C17.0976311,9.68341751 17.0976311,10.3165825 16.7071068,10.7071068 L16.7071068,10.7071068 L12.7071068,14.7071068 L12.6128994,14.7902954 C12.2206082,15.0953203 11.6533772,15.0675907 11.2928932,14.7071068 L11.2928932,14.7071068 L7.29289322,10.7071068 L7.20970461,10.6128994 C6.90467972,10.2206082 6.93240926,9.65337718 7.29289322,9.29289322 L7.29289322,9.29289322 Z"/>
</svg>

<svg xmlns="http://www.w3.org/2000/svg" viewBox="0 0 24 24">
  <path d="M19 2a3 3 0 0 1 3 3v14a3 3 0 0 1-3 3H5a3 3 0 0 1-3-3V5a3 3 0 0 1 3-3zm0 2H5a1 1 0 0 0-1 1v14a1 1 0 0 0 1 1h14a1 1 0 0 0 1-1V5a1 1 0 0 0-1-1zM7.39 9.21a1 1 0 0 1 1.32.08L12 12.6l3.3-3.3.09-.08a1 1 0 0 1 1.32 1.5l-4 4-.1.08a1 1 0 0 1-1.32-.08l-4-4-.08-.1a1 1 0 0 1 .08-1.32z"/>
</svg>
